X:1
T:They Are Waiting and Watching
T:They Are Waiting and Watching
T:John Columbus Lenderman
T:John Columbus Lenderman, 1914
T:Public Domain Courtesy of the Cyber Hymnal™
T:Public Domain Courtesy of the Cyber Hymnal™
C:John Columbus Lenderman
Z:Public Domain
Z:Courtesy of the Cyber Hymnal™
%%score 1 ( 2 3 )
L:1/8
Q:1/4=83
M:6/8
K:Bb
V:1 treble 
V:2 bass 
V:3 bass 
V:1
 [DF]/[DF]/ | [DB][CA][DB] [Fd][Ec][DB]/[DB]/ | [Ec][EB][EG] [DF]2 [DF]/[DF]/ | %3
w: 1.~I have|loved ones who’ve gone to Th- at|beau- ti- ful home— And I’m|
w: 2.~They are|shout- ing and sing- ing In those|man- sions a- bove; O so|
w: 3.~O I|long for that meet- ing, On that|glit- ter- ing strand; Far a-|
w: 4.~They are|call- ing me yon- der, To that|beau- ti- ful shore; There’s a|
 [DB][EA][DB] [Fd][Fc][=EB] | ([Ff-]3 [Af]2) [EF]/[EF]/ | [DB][CA][DB] [Fd][Ec][DB]/[DB]/ | %6
w: long- ing their fac- es to|see; * O to|sing the sweet sto- ry, They are|
w: hap- py to meet them I’ll|be; * There sweet|mu- sic is ring- ing— All is|
w: cross the dark bil- low- y|sea; * For that|glo- ri- ous greet- ing In that|
w: home that is wait- ing for|me; * There I|know from my loved ones, I will|
 [Ec][EB][EG] [DF]2 [Ge]/[Ge]/ | [Fd][Ec][DB] [Fc][EG][EA] | [DB]3- [DB]2 x || %9
w: beck- on- ing, “Come!” They are|wait- ing and watch- ing for|me. *|
w: glad- ness and love, They are|wait- ing and watch- ing for|me. *|
w: beau- ti- ful land, They are|wait- ing and watch- ing for|me. *|
w: part ne- ver- more, They are|wait- ing and watch- ing for|me. *|
"^Refrain" [DF]/[DF]/ x4 | [Fd]4 [=E^c][Fd] | [DB]3- [DB]2 [DB]/[DB]/ | [Fc]4 [Fd][Af] | %13
w: ||||
w: They are|wai- ting for|me, * They are|wai- ting for|
w: ||||
w: ||||
 ([Bf]3 [Fd]2) [DF]/[DF]/ | [DB][CA][DB] [Fd][Ec][DB]/[DB]/ | [Ec][EB][EG] [DF]2 [Ge]/[Ge]/ | %16
w: |||
w: me; * They are|call- ing me yon- der To that|beau- ti- ful shore, They are|
w: |||
w: |||
 [Fd][Ec][DB] [Fc][EG][EA] | [DB]3- [DB]2 x |] x5 |] %19
w: |||
w: wait- ing and watch- ing for|me. *||
w: |||
w: |||
V:2
 [B,,B,]/[B,,B,]/ | [B,,B,][B,,F,][B,,B,] [B,,B,][B,,F,][B,,B,]/[B,,B,]/ | %2
w: ||
 [E,G,][E,G,][E,B,] [B,,B,]2 [B,,B,]/[B,,B,]/ | [B,,B,][B,,F,][B,,B,] B,[A,C][G,C] | %4
w: |* * * They * *|
 ([F,-A,]3 [F,C]2) F,/F,/ | [B,,B,][B,,F,][B,,B,] [B,,B,][B,,F,][B,,B,]/[B,,B,]/ | %6
w: * * are wait-||
 [E,G,][E,G,][E,B,] x3 | [B,,B,]2 [E,B,]/[E,B,]/ x3 | [F,B,][F,A,][F,B,] [F,A,][F,A,]F, || %9
w: ||* * * * * ing|
 [B,,F,]3- [B,,F,]2 | [B,,B,]/[B,,B,]/ x5 | [B,,B,][B,,B,][B,,B,] [B,,B,][B,,B,][B,,B,] | %12
w: |for me,|They are wait- ing for me,|
 [B,,B,][D,B,]F, [B,,F,]2 [B,,B,]/[B,,B,]/ | [F,A,][F,A,][F,A,] [F,A,][F,B,][F,C] | %14
w: They are wait- ing and watch-|ing for * * * *|
 ([B,D]3 [B,,B,]2) [B,,B,]/[B,,B,]/ | [B,,B,][B,,F,][B,,B,] [B,,B,][B,,F,][B,,B,]/[B,,B,]/ | %16
w: ||
 [E,G,][E,G,][E,B,] [B,,B,]2 [E,B,]/[E,B,]/ | [F,B,][F,A,][F,B,] [F,A,][F,A,]F, |] %18
w: ||
 [B,,F,]3- [B,,F,]2 |] %19
w: |
V:3
 x | x6 | x6 | x3 B, x2 | x5 F,/F,/ | x6 | x6 | x6 | x5 F, || x5 | x6 | x6 | x2 F, x3 | x6 | x6 | %15
 x6 | x6 | x5 F, |] x5 |] %19

